X:1
T:Title
%%score { 1 | 2 }
L:1/8
Q:1/4=100
M:4/4
K:G
V:1 treble nm="Grand Piano"
V:2 treble 
V:1
 B4 c2 B2 | [FB]4 [FA]4 | [Fd]4 [FA]2 [FB]2 | G6 z2 | G4 A2 B2 | [EB]4 [EA]2 [Ac]2 | [GB]4 [FA]4 | %7
w: Florence~W.~Williams * *|||||||
 [GB]6 z2 | [Fd]4 [FA]2 [FB]2 | [DA]4 [DG]2 z2 | [Fd]4 [FA]2 [FB]2 | G6 z2 | G4 A2 B2 | %13
w: ||||||
 [EB]4 [EA]2 [EAc]2 | [DGB]4 [CFA]4 | [B,DG]6 z2 |] %16
w: |||
V:2
 [G,DG]4 [G,EG]2 [G,DG]2 | [D,D]4 [D,D]4 | [D,D]4 [D,C]2 [D,D]2 | [G,B,D]6 z2 | %4
 [G,B,]4 [G,CF]2 [G,D=F]2 | [C,C]6 [C,C]2 | [D,D]4 [D,D]4 | [G,D]6 z2 | [D,C]4 [D,C]2 [D,D]2 | %9
 [G,C]4 [G,B,]2 z2 | [D,C]4 [D,C]2 [D,D]2 | [G,B,D]6 z2 | [G,B,]4 [G,CF]2 [G,D=F]2 | %13
 [C,C]4 [C,C]2 A,,2 | D,4 D,4 | G,6 z2 |] %16

